packages/ui-icons/svg/Line/android.svg

<svg viewBox="0 0 1920 1920" version="1.1" xmlns="http://www.w3.org/2000/svg">
    <path d="M535.055664,9.51200987 C560.805916,-7.76776446 596.043103,-0.878442667 613.435817,25.0976887 L613.435817,25.0976887 L707.740468,166.159376 C767.59851,140.183244 831.522381,121.548194 899.625021,115.56239 C1008.95065,106.075455 1116.58219,123.694048 1213.71033,163.787642 L1213.71033,163.787642 L1306.09501,25.2106284 C1323.26184,-0.878442667 1358.27315,-7.76776446 1384.36222,9.51200987 C1410.33835,26.7917842 1417.34061,61.9160314 1400.06084,87.779223 L1400.06084,87.779223 L1314.3396,216.417543 C1343.59099,235.278473 1371.71297,255.833499 1397.46322,279.437896 C1515.93697,387.97295 1581.21612,532.761647 1581.21612,687.037279 L1581.21612,687.037279 L1581.21612,1421.14534 C1581.21612,1509.35125 1505.2077,1581.1809 1411.80657,1581.1809 L1411.80657,1581.1809 L1242.39701,1581.1809 L1242.39701,1920 L1129.45731,1920 L1129.45731,1581.1809 L790.638209,1581.1809 L790.638209,1920 L677.698507,1920 L677.698507,1581.1809 L508.288955,1581.1809 C414.887822,1581.1809 338.879403,1509.35125 338.879403,1421.14534 L338.879403,1421.14534 L338.879403,709.2864 C338.879403,508.81843 446.172119,329.018425 608.127651,220.370433 L608.127651,220.370433 L519.582925,87.8921627 C502.190211,62.0289711 509.192473,26.9047239 535.055664,9.51200987 Z M959.483063,225.904478 C942.880926,225.904478 926.165851,226.695056 909.450775,228.163272 C652.851773,250.638273 451.819104,461.948454 451.819104,709.2864 L451.819104,709.2864 L451.819104,1421.14534 C451.819104,1447.00853 477.117598,1468.24119 508.288955,1468.24119 L508.288955,1468.24119 L1411.80657,1468.24119 C1442.97792,1468.24119 1468.27642,1447.00853 1468.27642,1421.14534 L1468.27642,1421.14534 L1468.27642,687.037279 C1468.27642,564.723582 1416.09828,449.525087 1321.11599,362.674456 C1225.0043,274.46855 1095.34952,225.904478 959.483063,225.904478 Z M113,1298.83164 L225.939701,1298.83164 L225.939701,734.133135 L113,734.133135 L113,1298.83164 Z M1694.15582,1298.83164 L1807.09552,1298.83164 L1807.09552,734.133135 L1694.15582,734.133135 L1694.15582,1298.83164 Z M734.168358,474.394409 C684.24901,474.394409 643.816597,514.826822 643.816597,564.74617 C643.816597,614.552579 684.24901,655.097931 734.168358,655.097931 C784.087706,655.097931 824.520119,614.552579 824.520119,564.74617 C824.520119,514.826822 784.087706,474.394409 734.168358,474.394409 M1185.92716,474.394409 C1136.00782,474.394409 1095.5754,514.826822 1095.5754,564.74617 C1095.5754,614.552579 1136.00782,655.097931 1185.92716,655.097931 C1235.84651,655.097931 1276.27893,614.552579 1276.27893,564.74617 C1276.27893,514.826822 1235.84651,474.394409 1185.92716,474.394409" stroke="none" stroke-width="1" fill-rule="evenodd"/>
</svg>

<svg viewBox="0 0 1920 1920" version="1.1" xmlns="http://www.w3.org/2000/svg">
    <path d="M1314.34 216.418c29.251 18.86 57.373 39.415 83.123 63.02 118.474 108.535 183.753 253.324 183.753 407.6v734.107c0 88.206-76.008 160.036-169.41 160.036h-169.409V1920h-112.94v-338.82H790.638V1920h-112.94v-338.82H508.29c-93.401 0-169.41-71.829-169.41-160.035V709.286c0-200.468 107.293-380.268 269.249-488.916L519.583 87.892c-17.393-25.863-10.39-60.987 15.473-78.38 25.75-17.28 60.987-10.39 78.38 15.586l94.304 141.061c59.859-25.976 123.782-44.61 191.885-50.597a671.282 671.282 0 0 1 314.085 48.226l92.385-138.577c17.167-26.09 52.178-32.979 78.267-15.699 25.976 17.28 32.979 52.404 15.699 78.267l-85.721 128.639zm153.936 1204.727V687.037c0-122.313-52.178-237.512-147.16-324.363-96.112-88.205-225.766-136.77-361.633-136.77-16.602 0-33.317.791-50.032 2.26-256.6 22.474-457.632 233.784-457.632 481.122v711.86c0 25.863 25.299 47.095 56.47 47.095h903.518c31.17 0 56.47-21.232 56.47-47.096zM113 1298.832h112.94V734.133H113v564.699zm1581.156 0h112.94V734.133h-112.94v564.699zM734.168 474.394c-49.919 0-90.351 40.433-90.351 90.352 0 49.807 40.432 90.352 90.351 90.352 49.92 0 90.352-40.545 90.352-90.352 0-49.92-40.432-90.352-90.352-90.352m451.76 0c-49.92 0-90.353 40.433-90.353 90.352 0 49.807 40.433 90.352 90.352 90.352 49.92 0 90.352-40.545 90.352-90.352 0-49.92-40.432-90.352-90.352-90.352" stroke="none" stroke-width="1" fill-rule="evenodd"/>
</svg>
